X:1
T:Just a Little Sunshine
T:Just a Little Sunshine
T:William James Kirkpatrick
T:Eliza Edmunds Hewitt, 1890
T:Public Domain Courtesy of the Cyber Hymnal™
T:Public Domain Courtesy of the Cyber Hymnal™
C:William James Kirkpatrick
Z:Public Domain
Z:Courtesy of the Cyber Hymnal™
%%score ( 1 2 ) 3
L:1/8
Q:1/4=95
M:4/4
K:Ab
V:1 treble 
V:2 treble 
V:3 bass 
V:1
 [CE]>[CA] [Cc]>[CG] [DB]2 [CA]2 | C>[CE] [=B,G]>[B,F] [CE]4 | [DE]>[DG] [DB]>[DG] [Dd]2 [DB]2 | %3
w: 1.~Just a lit- tle sun- shine|ev- ery- where we go,|O- ver dark- ened path- ways,|
w: 2.~Like the bless- èd Mas- ter,|in this life are we|Sent to com- fort oth- ers,|
w: 3.~Just a lit- tle sun- shine|makes the ros- es grow;|In the bar- ren plac- es,|
 [DG]>[DF] [DG]>[DA] [DB]4 | [CE]>[CA] [Cc]>[CG] [DB]2 [CA]2 | C>[CE] [EA]>[EB] [DF]4 | %6
w: rays of bless- ing throw;|Gold- en rays of glad- ness|from a lov- ing heart|
w: pub- lish lib- er- ty;|Will- ing hands out- reach- ing,|strength- en- ing the weak,|
w: flowers be- gin to show;|Lift the clouds of sor- row,|cheer the hour of gloom,|
 [DE]>[DF] [DG]>[DA] [DB]2 [DE]2 | [Gd]>[Gd] [Gc]>[EGB] [EA]4 || %8
w: Help the world to bright- en;|let us do our part.|
w: In the name of Je- sus,|con- so- la- tion speak.|
w: Fruits of grace will rip- en|for im- mor- tal bloom.|
"^Refrain" [Ae]2 [Ac]2 [Ae]2 [Ac]2 | [EA]>[EB] [EA]>[DF] [CE]2 [EA]2 | %10
w: ||
w: Sun- shine, sun- shine,|just a lit- tle sun- shine,|
w: ||
 [EG]>[EA] [EB]>[Ac] [Gd]2 [EG]2 | [EB]>[EA] [Ec]>[CA] [CE]4 | [Ac]2 [Ae]2 [Ae]2 [Ac]2 | %13
w: |||
w: Bear- ing heav’n- ly glad- ness|through this world be- low;|Sun- shine, sun- shine,|
w: |||
 [EA]>[EB] [EA]>[CE] [EG]2 [DF]2 | [DE]>[DF] [DG]>[DA] [DB]2 [DE]2 | [Gd]>[Gd] [Gc]>[EGB] [EA]4 |] %16
w: |||
w: just a lit- tle sun- shine,|Tell- ing love’s sweet sto- ry,|ev- ery- where we go.|
w: |||
V:2
 x8 | C3/2 x13/2 | x8 | x8 | x8 | C3/2 x13/2 | x8 | x8 || x8 | x8 | x8 | x8 | x8 | x8 | x8 | x8 |] %16
V:3
 [A,,A,]>[A,,A,] [A,,A,]>[A,,E,] [A,,E,]2 [A,,E,]2 | [A,,E,]>[A,,E,] [A,,=D,]>[A,,D,] [A,,E,]4 | %2
 [E,G,]>[E,B,] [E,G,]>[E,B,] [E,G,]2 [E,G,]2 | [E,B,]>[E,A,] [E,B,]>[E,A,] [E,G,]4 | %4
 [A,,A,]>[A,,A,] [A,,A,]>[A,,E,] [A,,E,]2 [A,,E,]2 | [A,,E,]>[A,,A,] [C,A,]>[C,A,] [D,A,]4 | %6
 [E,G,]>[E,A,] [E,B,]>[E,A,] [E,G,]2 [E,G,]2 | [E,B,]>[E,B,] [E,E]>[E,D] [A,,C]4 || %8
 [A,C]2 [A,E]2 [A,C]2 [A,E]2 | [A,,C]>[A,,D] [A,,C]>[A,,A,] [A,,A,]2 [A,,C]2 | %10
 [E,B,]>[E,C] [E,D]>[E,C] [E,B,]2 [D,D]2 | [A,,C]>[A,,C] [A,,A,]>[A,,A,] [A,,A,]4 | %12
 [A,E]2 [A,C]2 [A,C]2 [A,E]2 | [A,,C]>[A,,D] [A,,C]>[A,,A,] [D,A,]2 [D,A,]2 | %14
 [E,G,]>[E,A,] [E,B,]>[E,A,] [E,G,]2 [E,G,]2 | [E,B,]>[E,B,] [E,E]>[E,D] [A,,C]4 |] %16

